;FLAVOR:Marlin
;TIME:9744
;Filament used: 3.38169m
;Layer height: 0.1
;MINX:21
;MINY:60
;MINZ:0.2
;MAXX:179
;MAXY:140
;MAXZ:20
;Generated with Cura_SteamEngine 4.2.1
M140 S95
M105
M190 S95
M104 S230
M105
M109 S230
M82 ;absolute extrusion mode
; -- START GCODE --
G21                     ;set units to millimetres
G90                     ;set to absolute positioning
M106 S0                 ;set fan speed to zero (turned off)
G28                     ;home all axis
M420 S1                 ;turn on mesh bed levelling if enabled in firmware
G92 E0                  ;zero the extruded length
G1 Z1 F1000             ;move up slightly
G92 E0                  ;zero the extruded length again
; -- end of START GCODE --
M141 S28
G92 E0
G92 E0
G1 F2700 E-8
;LAYER_COUNT:199
;LAYER:0
M107
G0 F2400 X25.311 Y77.254 Z0.2
;TYPE:SKIRT
G1 F2700 E0
G1 F1200 X25.985 Y77.097 E0.02302
G1 X26.841 Y77.011 E0.05163
G1 X27.162 Y77.002 E0.06231
G1 X27.33 Y77 E0.0679
G1 X37.074 Y77 E0.39199
G1 X39.717 Y76.963 E0.4799
G1 X42.417 Y76.848 E0.56979
G1 X45.044 Y76.662 E0.65738
G1 X47.725 Y76.396 E0.74699
G1 X50.333 Y76.062 E0.83444
G1 X52.947 Y75.652 E0.92244
G1 X55.575 Y75.163 E1.01135
G1 X58.188 Y74.601 E1.10025
G1 X60.715 Y73.981 E1.18679
G1 X63.339 Y73.26 E1.2773
G1 X65.87 Y72.485 E1.36534
G1 X68.391 Y71.634 E1.45383
G1 X70.86 Y70.724 E1.54135
G1 X73.342 Y69.727 E1.63032
G1 X75.779 Y68.666 E1.71872
G1 X78.195 Y67.534 E1.80746
G1 X80.556 Y66.346 E1.89537
G1 X81.228 Y65.979 E1.92083
G1 X81.333 Y65.924 E1.92478
G1 X82.672 Y65.227 E1.97498
G1 X82.933 Y65.099 E1.98465
G1 X83.915 Y64.647 E2.02061
G1 X84.147 Y64.546 E2.02902
G1 X85.161 Y64.13 E2.06548
G1 X85.402 Y64.037 E2.07407
G1 X85.621 Y63.958 E2.08181
G1 X85.865 Y63.876 E2.09037
G1 X86.932 Y63.542 E2.12756
G1 X87.174 Y63.472 E2.13594
G1 X88.176 Y63.204 E2.17044
G1 X88.341 Y63.162 E2.1761
G1 X88.577 Y63.106 E2.18417
G1 X88.919 Y63.035 E2.19579
G1 X90.041 Y62.837 E2.23368
G1 X90.283 Y62.8 E2.24182
G1 X91.048 Y62.697 E2.2675
G1 X91.301 Y62.668 E2.27597
G1 X92.369 Y62.57 E2.31164
G1 X92.572 Y62.555 E2.31841
G1 X94.015 Y62.472 E2.36648
G1 X94.06 Y62.469 E2.36798
G1 X95.441 Y62.4 E2.41397
G1 X98.094 Y62.192 E2.50248
G1 X100.72 Y61.911 E2.59032
G1 X103.38 Y61.55 E2.6796
G1 X106.002 Y61.118 E2.76799
G1 X108.611 Y60.613 E2.85637
G1 X110.619 Y60.172 E2.92475
G1 X111.455 Y60.049 E2.95286
G1 X111.88 Y60.017 E2.96703
G1 X112.33 Y60 E2.98201
G1 X124.293 Y60 E3.3799
G1 X124.379 Y60.001 E3.38276
G1 X125.08 Y60.011 E3.40608
G1 X125.77 Y60.06 E3.42909
G1 X126.451 Y60.19 E3.45215
G1 X127.112 Y60.396 E3.47517
G1 X127.744 Y60.678 E3.49819
G1 X128.271 Y60.984 E3.51846
G1 X129.093 Y61.52 E3.5511
G1 X129.176 Y61.575 E3.55441
G1 X129.762 Y61.971 E3.57793
G1 X132.004 Y63.396 E3.66629
G1 X134.274 Y64.748 E3.75417
G1 X136.61 Y66.053 E3.84317
G1 X138.967 Y67.284 E3.93161
G1 X141.348 Y68.442 E4.01967
G1 X143.81 Y69.554 E4.10952
G1 X146.206 Y70.557 E4.19591
G1 X148.765 Y71.545 E4.28715
G1 X151.191 Y72.401 E4.37271
G1 X153.759 Y73.226 E4.46243
G1 X156.308 Y73.968 E4.55072
G1 X158.85 Y74.63 E4.63809
G1 X161.48 Y75.236 E4.72786
G1 X164.095 Y75.763 E4.81658
G1 X166.691 Y76.207 E4.90418
G1 X169.338 Y76.584 E4.99311
G1 X171.957 Y76.882 E5.08078
G1 X172.315 Y76.913 E5.09273
G1 X172.397 Y76.92 E5.09547
G1 X173.576 Y77.037 E5.13487
G1 X174.26 Y77.145 E5.1579
G1 X174.927 Y77.332 E5.18094
G1 X175.568 Y77.593 E5.20396
G1 X176.174 Y77.927 E5.22698
G1 X176.739 Y78.329 E5.25004
G1 X177.253 Y78.793 E5.27307
G1 X177.71 Y79.313 E5.2961
G1 X178.104 Y79.882 E5.31912
G1 X178.431 Y80.493 E5.34217
G1 X178.684 Y81.138 E5.36521
G1 X178.862 Y81.807 E5.38824
G1 X178.975 Y82.692 E5.41791
G1 X178.992 Y83.014 E5.42863
G1 X179 Y83.33 E5.43915
G1 X179 Y97.316 E5.90432
G1 X178.999 Y97.4 E5.90712
G1 X178.983 Y98.531 E5.94474
G1 X178.983 Y101.309 E6.03714
G1 X178.999 Y102.206 E6.06697
G1 X179 Y102.313 E6.07053
G1 X179 Y116.264 E6.53455
G1 X178.999 Y116.347 E6.53731
G1 X178.989 Y117.073 E6.56146
G1 X178.94 Y117.763 E6.58446
G1 X178.811 Y118.444 E6.60752
G1 X178.605 Y119.105 E6.63054
G1 X178.324 Y119.738 E6.65358
G1 X177.972 Y120.334 E6.6766
G1 X177.553 Y120.886 E6.69965
G1 X177.074 Y121.386 E6.72268
G1 X176.54 Y121.827 E6.74571
G1 X175.959 Y122.204 E6.76875
G1 X175.338 Y122.511 E6.79179
G1 X174.687 Y122.745 E6.8148
G1 X174.012 Y122.902 E6.83785
G1 X173.512 Y122.967 E6.85462
G1 X173.283 Y122.987 E6.86227
G1 X170.555 Y123.262 E6.95346
G1 X167.89 Y123.606 E7.04283
G1 X165.311 Y124.014 E7.12968
G1 X162.672 Y124.508 E7.21898
G1 X160.085 Y125.069 E7.30702
G1 X157.497 Y125.706 E7.39567
G1 X154.958 Y126.408 E7.48328
G1 X152.384 Y127.2 E7.57285
G1 X149.874 Y128.05 E7.66099
G1 X147.358 Y128.981 E7.75022
G1 X144.945 Y129.955 E7.83677
G1 X142.476 Y131.033 E7.92638
G1 X140.06 Y132.168 E8.01516
G1 X137.702 Y133.36 E8.10304
G1 X135.375 Y134.62 E8.19105
G1 X133.063 Y135.958 E8.2799
G1 X130.809 Y137.348 E8.36797
G1 X128.297 Y139.001 E8.46799
G1 X127.697 Y139.347 E8.49103
G1 X127.062 Y139.622 E8.51404
G1 X126.399 Y139.822 E8.53707
G1 X125.717 Y139.945 E8.56012
G1 X125.218 Y139.984 E8.57677
G1 X124.889 Y139.996 E8.58772
G1 X124.67 Y140 E8.59501
G1 X112.707 Y140 E8.9929
G1 X112.621 Y139.999 E8.99576
G1 X111.923 Y139.989 E9.01898
G1 X111.232 Y139.94 E9.04202
G1 X110.755 Y139.857 E9.05812
G1 X109.581 Y139.606 E9.09805
G1 X109.496 Y139.588 E9.10094
G1 X109.014 Y139.478 E9.11738
G1 X106.408 Y138.957 E9.20577
G1 X103.802 Y138.513 E9.2937
G1 X101.13 Y138.134 E9.38346
G1 X98.527 Y137.841 E9.47058
G1 X95.874 Y137.618 E9.55913
G1 X93.2 Y137.468 E9.64821
G1 X92.32 Y137.431 E9.67751
G1 X92.124 Y137.419 E9.68404
G1 X91.672 Y137.385 E9.69911
G1 X91.403 Y137.359 E9.7081
G1 X90.782 Y137.284 E9.72891
G1 X90.49 Y137.241 E9.73872
G1 X89.145 Y137.011 E9.78411
G1 X88.94 Y136.973 E9.79104
G1 X88.534 Y136.889 E9.80483
G1 X88.282 Y136.831 E9.81343
G1 X87.66 Y136.674 E9.83477
G1 X87.375 Y136.594 E9.84461
G1 X86.066 Y136.194 E9.89014
G1 X85.872 Y136.131 E9.89692
G1 X85.493 Y136.001 E9.91025
G1 X85.244 Y135.91 E9.91907
G1 X84.611 Y135.661 E9.94169
G1 X84.342 Y135.547 E9.95141
G1 X83.166 Y135.017 E9.99431
G1 X82.98 Y134.93 E10.00114
G1 X82.584 Y134.735 E10.01582
G1 X82.389 Y134.634 E10.02313
G1 X80.561 Y133.649 E10.09219
G1 X78.206 Y132.464 E10.17987
G1 X75.776 Y131.326 E10.26912
G1 X73.326 Y130.261 E10.35797
G1 X70.84 Y129.261 E10.4471
G1 X68.372 Y128.354 E10.53455
G1 X65.887 Y127.516 E10.62178
G1 X63.297 Y126.724 E10.71186
G1 X60.773 Y126.03 E10.79892
G1 X58.144 Y125.386 E10.88895
G1 X55.561 Y124.829 E10.97683
G1 X52.971 Y124.35 E11.06444
G1 X50.33 Y123.936 E11.15335
G1 X47.692 Y123.6 E11.2418
G1 X45.033 Y123.336 E11.33067
G1 X42.416 Y123.151 E11.41793
G1 X39.71 Y123.036 E11.50802
G1 X37.092 Y123 E11.5951
G1 X27.707 Y123 E11.90724
G1 X27.621 Y122.999 E11.91011
G1 X26.923 Y122.989 E11.93332
G1 X26.232 Y122.94 E11.95636
G1 X25.552 Y122.81 E11.97939
G1 X24.891 Y122.604 E12.00242
G1 X24.258 Y122.322 E12.02547
G1 X23.662 Y121.97 E12.04849
G1 X23.111 Y121.551 E12.07151
G1 X22.611 Y121.071 E12.09456
G1 X22.17 Y120.537 E12.1176
G1 X21.793 Y119.956 E12.14064
G1 X21.486 Y119.335 E12.16368
G1 X21.253 Y118.683 E12.1867
G1 X21.096 Y118.009 E12.20972
G1 X21.011 Y117.153 E12.23833
G1 X21.002 Y116.821 E12.24938
G1 X21 Y116.658 E12.2548
G1 X21 Y102.684 E12.71958
G1 X21.001 Y102.6 E12.72237
G1 X21.017 Y101.469 E12.75999
G1 X21.017 Y98.691 E12.85239
G1 X21.001 Y97.794 E12.88223
G1 X21 Y97.687 E12.88579
G1 X21 Y83.674 E13.35186
G1 X21.001 Y83.593 E13.35456
G1 X21.01 Y82.928 E13.37668
G1 X21.059 Y82.237 E13.39972
G1 X21.187 Y81.557 E13.42273
G1 X21.394 Y80.895 E13.4458
G1 X21.675 Y80.262 E13.46884
G1 X22.027 Y79.666 E13.49186
G1 X22.445 Y79.114 E13.51489
G1 X22.924 Y78.614 E13.53792
G1 X23.458 Y78.173 E13.56095
G1 X24.039 Y77.796 E13.58399
G1 X24.659 Y77.488 E13.60701
G1 X25.311 Y77.254 E13.63005
G0 F2400 X25.665 Y77.573
G1 F1200 X26.323 Y77.451 E13.65231
G1 X26.852 Y77.411 E13.66996
G1 X27.173 Y77.402 E13.68064
G1 X27.33 Y77.4 E13.68586
G1 X37.08 Y77.4 E14.01015
G1 X39.74 Y77.362 E14.09863
G1 X42.426 Y77.248 E14.18804
G1 X45.079 Y77.06 E14.2765
G1 X47.745 Y76.796 E14.36561
G1 X50.409 Y76.455 E14.45494
G1 X53.01 Y76.046 E14.54251
G1 X55.661 Y75.554 E14.63219
G1 X58.27 Y74.992 E14.72095
G1 X60.837 Y74.362 E14.80887
G1 X63.425 Y73.651 E14.89813
G1 X66.01 Y72.86 E14.98805
G1 X68.509 Y72.017 E15.07576
G1 X71.01 Y71.094 E15.16443
G1 X73.501 Y70.094 E15.25371
G1 X75.943 Y69.031 E15.34229
G1 X78.395 Y67.882 E15.43236
G1 X80.748 Y66.698 E15.51997
G1 X81.42 Y66.331 E15.54543
G1 X81.517 Y66.279 E15.54909
G1 X82.856 Y65.582 E15.5993
G1 X83.101 Y65.462 E15.60838
G1 X84.083 Y65.01 E15.64433
G1 X84.298 Y64.916 E15.65214
G1 X85.312 Y64.5 E15.68859
G1 X85.538 Y64.413 E15.69664
G1 X85.757 Y64.334 E15.70439
G1 X85.984 Y64.258 E15.71235
G1 X87.051 Y63.924 E15.74954
G1 X87.277 Y63.858 E15.75737
G1 X88.279 Y63.59 E15.79186
G1 X88.433 Y63.551 E15.79715
G1 X88.669 Y63.495 E15.80522
G1 X88.989 Y63.429 E15.81608
G1 X90.111 Y63.231 E15.85398
G1 X90.337 Y63.196 E15.86158
G1 X91.102 Y63.093 E15.88726
G1 X91.337 Y63.066 E15.89512
G1 X92.405 Y62.968 E15.9308
G1 X92.595 Y62.954 E15.93713
G1 X94.038 Y62.871 E15.98521
G1 X94.08 Y62.869 E15.9866
G1 X95.456 Y62.8 E16.03243
G1 X98.135 Y62.59 E16.12181
G1 X100.781 Y62.307 E16.21031
G1 X103.428 Y61.948 E16.29916
G1 X106.037 Y61.518 E16.38711
G1 X108.686 Y61.005 E16.47685
G1 X110.704 Y60.562 E16.54557
G1 X111.485 Y60.448 E16.57182
G1 X111.91 Y60.416 E16.58599
G1 X112.33 Y60.4 E16.59997
G1 X124.293 Y60.4 E16.99786
G1 X124.373 Y60.401 E17.00052
G1 X125.074 Y60.411 E17.02384
G1 X125.741 Y60.46 E17.04609
G1 X126.398 Y60.589 E17.06836
G1 X127.034 Y60.795 E17.09059
G1 X127.641 Y61.075 E17.11282
G1 X128.053 Y61.319 E17.12875
G1 X128.875 Y61.855 E17.16139
G1 X128.952 Y61.906 E17.16446
G1 X129.554 Y62.313 E17.18863
G1 X131.791 Y63.734 E17.27677
G1 X134.069 Y65.092 E17.36498
G1 X136.436 Y66.414 E17.45516
G1 X138.786 Y67.641 E17.54333
G1 X141.187 Y68.808 E17.63212
G1 X143.627 Y69.911 E17.72118
G1 X146.087 Y70.941 E17.80988
G1 X148.594 Y71.909 E17.89927
G1 X151.084 Y72.787 E17.98708
G1 X153.62 Y73.602 E18.07568
G1 X156.21 Y74.356 E18.1654
G1 X158.765 Y75.021 E18.25321
G1 X161.383 Y75.625 E18.34257
G1 X164.02 Y76.156 E18.43204
G1 X166.633 Y76.603 E18.52021
G1 X169.273 Y76.979 E18.6089
G1 X171.914 Y77.28 E18.69731
G1 X172.281 Y77.311 E18.70956
G1 X172.357 Y77.318 E18.7121
G1 X173.536 Y77.435 E18.75151
G1 X174.197 Y77.541 E18.77377
G1 X174.84 Y77.725 E18.79602
G1 X175.457 Y77.984 E18.81827
G1 X176.038 Y78.315 E18.84051
G1 X176.576 Y78.713 E18.86277
G1 X177.063 Y79.172 E18.88503
G1 X177.491 Y79.686 E18.90728
G1 X177.855 Y80.247 E18.92952
G1 X178.15 Y80.848 E18.95179
G1 X178.37 Y81.479 E18.97401
G1 X178.514 Y82.133 E18.99629
G1 X178.575 Y82.713 E19.01568
G1 X178.592 Y83.035 E19.02641
G1 X178.6 Y83.33 E19.03622
G1 X178.6 Y97.316 E19.5014
G1 X178.599 Y97.394 E19.50399
G1 X178.583 Y98.531 E19.54182
G1 X178.583 Y101.316 E19.63444
G1 X178.599 Y102.213 E19.66428
G1 X178.6 Y102.313 E19.66761
G1 X178.6 Y116.264 E20.13162
G1 X178.599 Y116.341 E20.13418
G1 X178.589 Y117.067 E20.15833
G1 X178.54 Y117.734 E20.18058
G1 X178.412 Y118.391 E20.20284
G1 X178.206 Y119.028 E20.22511
G1 X177.926 Y119.635 E20.24734
G1 X177.575 Y120.205 E20.2696
G1 X177.159 Y120.729 E20.29186
G1 X176.684 Y121.199 E20.31408
G1 X176.155 Y121.61 E20.33636
G1 X175.582 Y121.954 E20.35859
G1 X174.971 Y122.228 E20.38086
G1 X174.332 Y122.427 E20.40312
G1 X173.477 Y122.569 E20.43195
G1 X173.21 Y122.592 E20.44086
G1 X170.5 Y122.866 E20.53146
G1 X167.848 Y123.208 E20.6204
G1 X165.247 Y123.62 E20.70798
G1 X162.579 Y124.119 E20.79826
G1 X159.976 Y124.683 E20.88685
G1 X157.443 Y125.307 E20.97361
G1 X154.798 Y126.038 E21.06488
G1 X152.275 Y126.815 E21.15269
G1 X149.754 Y127.668 E21.24121
G1 X147.218 Y128.607 E21.33115
G1 X144.771 Y129.594 E21.41891
G1 X142.325 Y130.662 E21.50768
G1 X139.874 Y131.813 E21.59774
G1 X137.537 Y132.995 E21.68485
G1 X135.163 Y134.28 E21.77463
G1 X132.848 Y135.62 E21.8636
G1 X130.585 Y137.016 E21.95203
G1 X128.077 Y138.666 E22.05188
G1 X127.497 Y139 E22.07415
G1 X126.881 Y139.262 E22.09641
G1 X126.239 Y139.449 E22.11865
G1 X125.579 Y139.558 E22.1409
G1 X125.203 Y139.584 E22.15343
G1 X124.874 Y139.596 E22.16438
G1 X124.67 Y139.6 E22.17117
G1 X112.707 Y139.6 E22.56906
G1 X112.627 Y139.599 E22.57172
G1 X111.929 Y139.589 E22.59494
G1 X111.262 Y139.54 E22.61719
G1 X110.838 Y139.466 E22.6315
G1 X109.664 Y139.215 E22.67143
G1 X109.585 Y139.198 E22.67412
G1 X109.11 Y139.089 E22.69033
G1 X106.482 Y138.564 E22.77946
G1 X103.849 Y138.116 E22.86829
G1 X101.199 Y137.74 E22.95732
G1 X98.535 Y137.44 E23.04648
G1 X95.895 Y137.218 E23.1346
G1 X93.242 Y137.069 E23.22298
G1 X92.337 Y137.031 E23.2531
G1 X92.154 Y137.02 E23.2592
G1 X91.702 Y136.986 E23.27428
G1 X91.451 Y136.962 E23.28266
G1 X90.83 Y136.887 E23.30347
G1 X90.557 Y136.847 E23.31265
G1 X89.212 Y136.617 E23.35803
G1 X89.021 Y136.581 E23.36449
G1 X88.615 Y136.497 E23.37828
G1 X88.379 Y136.443 E23.38634
G1 X87.757 Y136.286 E23.40767
G1 X87.491 Y136.212 E23.41686
G1 X86.182 Y135.812 E23.46238
G1 X86.002 Y135.753 E23.46868
G1 X85.623 Y135.623 E23.48201
G1 X85.39 Y135.537 E23.49027
G1 X84.757 Y135.288 E23.51289
G1 X84.506 Y135.182 E23.52195
G1 X83.33 Y134.652 E23.56486
G1 X83.157 Y134.571 E23.57121
G1 X82.761 Y134.376 E23.58589
G1 X82.579 Y134.282 E23.5927
G1 X80.752 Y133.298 E23.66172
G1 X78.349 Y132.088 E23.75121
G1 X75.956 Y130.968 E23.83909
G1 X73.499 Y129.9 E23.92819
G1 X70.99 Y128.891 E24.01814
G1 X68.489 Y127.971 E24.10677
G1 X65.995 Y127.13 E24.19431
G1 X63.447 Y126.351 E24.28293
G1 X60.836 Y125.633 E24.373
G1 X58.252 Y125 E24.46148
G1 X55.652 Y124.44 E24.54994
G1 X52.993 Y123.948 E24.63988
G1 X50.405 Y123.542 E24.72701
G1 X47.747 Y123.203 E24.81613
G1 X45.068 Y122.937 E24.90567
G1 X42.425 Y122.751 E24.9938
G1 X39.733 Y122.637 E25.08341
G1 X37.097 Y122.6 E25.1711
G1 X27.707 Y122.6 E25.48341
G1 X27.627 Y122.599 E25.48607
G1 X26.929 Y122.589 E25.50929
G1 X26.262 Y122.54 E25.53153
G1 X25.605 Y122.411 E25.5538
G1 X24.969 Y122.205 E25.57604
G1 X24.361 Y121.924 E25.59831
G1 X23.792 Y121.574 E25.62053
G1 X23.268 Y121.157 E25.64281
G1 X22.798 Y120.681 E25.66506
G1 X22.388 Y120.153 E25.68729
G1 X22.043 Y119.579 E25.70956
G1 X21.77 Y118.968 E25.73182
G1 X21.572 Y118.329 E25.75407
G1 X21.451 Y117.671 E25.77633
G1 X21.411 Y117.142 E25.79397
G1 X21.402 Y116.81 E25.80502
G1 X21.4 Y116.658 E25.81007
G1 X21.4 Y102.684 E26.27485
G1 X21.401 Y102.606 E26.27744
G1 X21.417 Y101.469 E26.31526
G1 X21.417 Y98.684 E26.40789
G1 X21.401 Y97.787 E26.43773
G1 X21.4 Y97.687 E26.44106
G1 X21.4 Y83.674 E26.90713
G1 X21.401 Y83.598 E26.90966
G1 X21.41 Y82.933 E26.93178
G1 X21.459 Y82.266 E26.95403
G1 X21.587 Y81.609 E26.97629
G1 X21.792 Y80.973 E26.99851
G1 X22.072 Y80.365 E27.02078
G1 X22.423 Y79.795 E27.04304
G1 X22.839 Y79.271 E27.06529
G1 X23.314 Y78.801 E27.08752
G1 X23.843 Y78.39 E27.1098
G1 X24.416 Y78.045 E27.13205
G1 X25.027 Y77.772 E27.1543
G1 X25.665 Y77.573 E27.17653
G0 F2400 X25.389 Y78.068
G1 F1200 X26.013 Y77.905 E27.19798
G1 X26.863 Y77.811 E27.22643
G1 X27.184 Y77.802 E27.23711
G1 X27.33 Y77.8 E27.24196
G1 X37.085 Y77.8 E27.56642
G1 X39.763 Y77.762 E27.6555
G1 X42.436 Y77.649 E27.74448
G1 X45.11 Y77.459 E27.83364
G1 X47.802 Y77.192 E27.92362
G1 X50.451 Y76.853 E28.01244
G1 X53.115 Y76.435 E28.10213
G1 X55.706 Y75.953 E28.18979
G1 X58.377 Y75.378 E28.28066
G1 X60.932 Y74.751 E28.36816
G1 X63.543 Y74.034 E28.45822
G1 X66.117 Y73.246 E28.54775
G1 X68.627 Y72.399 E28.63586
G1 X71.161 Y71.464 E28.7257
G1 X73.674 Y70.455 E28.81576
G1 X76.123 Y69.389 E28.9046
