;FLAVOR:Marlin
;TIME:1131
;Filament used: 0.70397m
;Layer height: 0.2
;MINX:73
;MINY:77
;MINZ:0.2
;MAXX:127
;MAXY:123
;MAXZ:20
;Generated with Cura_SteamEngine 4.2.1
M140 S95
M105
M190 S95
M104 S230
M105
M109 S230
M82 ;absolute extrusion mode
; -- START GCODE --
G21                     ;set units to millimetres
G90                     ;set to absolute positioning
M106 S0                 ;set fan speed to zero (turned off)
G28                     ;home all axis
M420 S1                 ;turn on mesh bed levelling if enabled in firmware
G92 E0                  ;zero the extruded length
G1 Z1 F1000             ;move up slightly
G92 E0                  ;zero the extruded length again
; -- end of START GCODE --
M141 S28
G92 E0
G92 E0
G1 F2700 E-8
;LAYER_COUNT:100
;LAYER:0
M107
G0 F2400 X74.932 Y78.608 Z0.2
;TYPE:SKIRT
G1 F2700 E0
G1 F1200 X75.466 Y78.167 E0.02303
G1 X76.048 Y77.791 E0.04608
G1 X76.669 Y77.485 E0.06911
G1 X77.321 Y77.252 E0.09213
G1 X77.995 Y77.095 E0.11515
G1 X78.841 Y77.011 E0.14343
G1 X79.161 Y77.002 E0.15408
G1 X79.33 Y77 E0.1597
G1 X93.293 Y77 E0.62411
G1 X93.378 Y77.001 E0.62694
G1 X94.084 Y77.011 E0.65042
G1 X94.254 Y77.015 E0.65608
G1 X95.335 Y77.061 E0.69206
G1 X95.414 Y77.065 E0.69469
G1 X96.138 Y77.105 E0.71881
G1 X98.8 Y77.178 E0.80738
G1 X101.428 Y77.176 E0.89479
G1 X106.11 Y77.004 E1.05062
G1 X106.33 Y77 E1.05794
G1 X120.293 Y77 E1.52235
G1 X120.379 Y77.001 E1.52521
G1 X121.077 Y77.011 E1.54843
G1 X121.768 Y77.06 E1.57147
G1 X122.448 Y77.19 E1.59449
G1 X123.109 Y77.396 E1.61752
G1 X123.742 Y77.678 E1.64057
G1 X124.338 Y78.03 E1.66359
G1 X124.889 Y78.449 E1.68662
G1 X125.389 Y78.929 E1.70967
G1 X125.83 Y79.463 E1.7327
G1 X126.207 Y80.044 E1.75574
G1 X126.514 Y80.665 E1.77878
G1 X126.747 Y81.317 E1.80181
G1 X126.904 Y81.991 E1.82483
G1 X126.989 Y82.841 E1.85324
G1 X126.998 Y83.161 E1.86389
G1 X127 Y83.33 E1.86951
G1 X127 Y97.316 E2.33468
G1 X126.999 Y97.4 E2.33748
G1 X126.983 Y98.531 E2.3751
G1 X126.983 Y101.309 E2.4675
G1 X126.999 Y102.206 E2.49733
G1 X127 Y102.313 E2.50089
G1 X127 Y116.338 E2.96737
G1 X126.991 Y117.065 E2.99155
G1 X126.942 Y117.756 E3.01459
G1 X126.814 Y118.437 E3.03764
G1 X126.609 Y119.098 E3.06065
G1 X126.329 Y119.731 E3.08368
G1 X125.977 Y120.328 E3.10673
G1 X125.56 Y120.881 E3.12976
G1 X125.081 Y121.381 E3.15279
G1 X124.548 Y121.823 E3.17582
G1 X123.967 Y122.201 E3.19888
G1 X123.347 Y122.509 E3.2219
G1 X122.696 Y122.744 E3.24492
G1 X122.021 Y122.902 E3.26798
G1 X121.159 Y122.989 E3.29679
G1 X120.838 Y122.998 E3.30748
G1 X120.67 Y123 E3.31306
G1 X106.707 Y123 E3.77747
G1 X106.622 Y122.999 E3.7803
G1 X105.917 Y122.989 E3.80375
G1 X105.747 Y122.985 E3.80941
G1 X104.665 Y122.939 E3.84543
G1 X104.586 Y122.935 E3.84806
G1 X103.862 Y122.895 E3.87218
G1 X101.2 Y122.822 E3.96075
G1 X98.572 Y122.824 E4.04816
G1 X93.89 Y122.996 E4.20399
G1 X93.67 Y123 E4.2113
G1 X79.707 Y123 E4.67571
G1 X79.621 Y122.999 E4.67858
G1 X78.923 Y122.989 E4.70179
G1 X78.232 Y122.94 E4.72483
G1 X77.552 Y122.81 E4.74786
G1 X76.891 Y122.604 E4.77089
G1 X76.258 Y122.322 E4.79394
G1 X75.662 Y121.97 E4.81696
G1 X75.111 Y121.551 E4.83998
G1 X74.611 Y121.071 E4.86303
G1 X74.17 Y120.537 E4.88607
G1 X73.793 Y119.956 E4.90911
G1 X73.486 Y119.335 E4.93215
G1 X73.253 Y118.683 E4.95517
G1 X73.096 Y118.009 E4.97819
G1 X73.011 Y117.153 E5.0068
G1 X73.002 Y116.821 E5.01785
G1 X73 Y116.658 E5.02327
G1 X73 Y102.684 E5.48805
G1 X73.001 Y102.6 E5.49084
G1 X73.017 Y101.469 E5.52846
G1 X73.017 Y98.691 E5.62086
G1 X73.001 Y97.794 E5.6507
G1 X73 Y97.687 E5.65426
G1 X73 Y83.674 E6.12033
G1 X73.001 Y83.584 E6.12333
G1 X73.011 Y82.919 E6.14545
G1 X73.061 Y82.228 E6.16849
G1 X73.191 Y81.548 E6.19152
G1 X73.398 Y80.887 E6.21455
G1 X73.68 Y80.254 E6.2376
G1 X74.033 Y79.659 E6.26061
G1 X74.452 Y79.107 E6.28366
G1 X74.932 Y78.608 E6.30669
G0 F2400 X75.322 Y78.795
G1 F1200 X75.851 Y78.385 E6.32895
G1 X76.425 Y78.042 E6.35119
G1 X77.035 Y77.769 E6.37342
G1 X77.674 Y77.571 E6.39567
G1 X78.333 Y77.45 E6.41795
G1 X78.853 Y77.411 E6.4353
G1 X79.173 Y77.402 E6.44595
G1 X79.33 Y77.4 E6.45117
G1 X93.293 Y77.4 E6.91558
G1 X93.372 Y77.401 E6.91821
G1 X94.078 Y77.411 E6.94169
G1 X94.237 Y77.415 E6.94698
G1 X95.318 Y77.461 E6.98297
G1 X95.392 Y77.465 E6.98543
G1 X96.106 Y77.505 E7.00922
G1 X98.789 Y77.578 E7.09849
G1 X101.442 Y77.576 E7.18673
G1 X106.124 Y77.404 E7.34256
G1 X106.33 Y77.4 E7.34941
G1 X120.293 Y77.4 E7.81382
G1 X120.373 Y77.401 E7.81648
G1 X121.071 Y77.411 E7.8397
G1 X121.738 Y77.46 E7.86194
G1 X122.395 Y77.589 E7.88421
G1 X123.031 Y77.795 E7.90645
G1 X123.639 Y78.076 E7.92873
G1 X124.208 Y78.426 E7.95094
G1 X124.732 Y78.843 E7.97322
G1 X125.202 Y79.319 E7.99547
G1 X125.612 Y79.847 E8.0177
G1 X125.957 Y80.421 E8.03997
G1 X126.23 Y81.032 E8.06223
G1 X126.428 Y81.671 E8.08448
G1 X126.549 Y82.329 E8.10674
G1 X126.589 Y82.853 E8.12421
G1 X126.598 Y83.173 E8.13486
G1 X126.6 Y83.33 E8.14008
G1 X126.6 Y97.316 E8.60526
G1 X126.599 Y97.394 E8.60785
G1 X126.583 Y98.531 E8.64568
G1 X126.583 Y101.316 E8.7383
G1 X126.599 Y102.213 E8.76814
G1 X126.6 Y102.313 E8.77147
G1 X126.6 Y116.333 E9.23778
G1 X126.591 Y117.06 E9.26196
G1 X126.542 Y117.728 E9.28424
G1 X126.415 Y118.384 E9.30646
G1 X126.21 Y119.021 E9.32872
G1 X125.931 Y119.629 E9.35097
G1 X125.581 Y120.199 E9.37321
G1 X125.165 Y120.724 E9.39549
G1 X124.69 Y121.195 E9.41774
G1 X124.163 Y121.606 E9.43997
G1 X123.59 Y121.952 E9.46223
G1 X122.98 Y122.226 E9.48447
G1 X122.341 Y122.426 E9.50674
G1 X121.683 Y122.548 E9.529
G1 X121.148 Y122.589 E9.54685
G1 X120.827 Y122.598 E9.55753
G1 X120.67 Y122.6 E9.56275
G1 X106.707 Y122.6 E10.02716
G1 X106.628 Y122.599 E10.02979
G1 X105.923 Y122.589 E10.05324
G1 X105.764 Y122.585 E10.05853
G1 X104.682 Y122.539 E10.09455
G1 X104.608 Y122.535 E10.09702
G1 X103.894 Y122.495 E10.1208
G1 X101.211 Y122.422 E10.21007
G1 X98.558 Y122.424 E10.29831
G1 X93.876 Y122.596 E10.45414
G1 X93.67 Y122.6 E10.46099
G1 X79.707 Y122.6 E10.9254
G1 X79.627 Y122.599 E10.92806
G1 X78.929 Y122.589 E10.95128
G1 X78.262 Y122.54 E10.97353
G1 X77.605 Y122.411 E10.9958
G1 X76.969 Y122.205 E11.01803
G1 X76.361 Y121.924 E11.04031
G1 X75.792 Y121.574 E11.06253
G1 X75.268 Y121.157 E11.0848
G1 X74.798 Y120.681 E11.10705
G1 X74.388 Y120.153 E11.12928
G1 X74.043 Y119.579 E11.15156
G1 X73.77 Y118.968 E11.17382
G1 X73.572 Y118.329 E11.19607
G1 X73.451 Y117.671 E11.21832
G1 X73.411 Y117.142 E11.23596
G1 X73.402 Y116.81 E11.24701
G1 X73.4 Y116.658 E11.25207
G1 X73.4 Y102.684 E11.71684
G1 X73.401 Y102.606 E11.71944
G1 X73.417 Y101.469 E11.75726
G1 X73.417 Y98.684 E11.84989
G1 X73.401 Y97.787 E11.87973
G1 X73.4 Y97.687 E11.88305
G1 X73.4 Y83.674 E12.34913
G1 X73.401 Y83.59 E12.35192
G1 X73.411 Y82.925 E12.37404
G1 X73.461 Y82.258 E12.39629
G1 X73.59 Y81.601 E12.41856
G1 X73.796 Y80.965 E12.44079
G1 X74.077 Y80.358 E12.46304
G1 X74.429 Y79.788 E12.48532
G1 X74.846 Y79.265 E12.50757
G1 X75.322 Y78.795 E12.52982
G0 F2400 X75.711 Y78.99
G1 F1200 X76.233 Y78.612 E12.55125
G1 X76.799 Y78.303 E12.5727
G1 X77.398 Y78.065 E12.59414
G1 X78.022 Y77.904 E12.61557
G1 X78.864 Y77.811 E12.64375
G1 X79.184 Y77.802 E12.6544
G1 X79.33 Y77.8 E12.65925
G1 X93.293 Y77.8 E13.12366
G1 X93.367 Y77.801 E13.12613
G1 X94.073 Y77.811 E13.14961
G1 X94.22 Y77.815 E13.1545
G1 X95.301 Y77.861 E13.19049
G1 X95.37 Y77.864 E13.19279
G1 X96.107 Y77.905 E13.21734
G1 X98.78 Y77.978 E13.30627
G1 X101.457 Y77.976 E13.39531
G1 X106.139 Y77.804 E13.55114
G1 X106.33 Y77.8 E13.55749
G1 X120.293 Y77.8 E14.02191
G1 X120.367 Y77.801 E14.02437
G1 X121.065 Y77.811 E14.04758
G1 X121.708 Y77.86 E14.06903
G1 X122.34 Y77.988 E14.09048
G1 X122.951 Y78.194 E14.11193
G1 X123.532 Y78.473 E14.13336
G1 X124.074 Y78.822 E14.1548
G1 X124.568 Y79.236 E14.17624
G1 X125.008 Y79.708 E14.1977
G1 X125.386 Y80.23 E14.21914
G1 X125.696 Y80.795 E14.24057
G1 X125.934 Y81.394 E14.26201
G1 X126.096 Y82.018 E14.28345
G1 X126.189 Y82.864 E14.31176
G1 X126.198 Y83.184 E14.32241
G1 X126.2 Y83.33 E14.32727
G1 X126.2 Y97.316 E14.79244
G1 X126.199 Y97.389 E14.79487
G1 X126.183 Y98.531 E14.83286
G1 X126.183 Y101.323 E14.92572
G1 X126.199 Y102.22 E14.95556
G1 X126.2 Y102.313 E14.95865
G1 X126.2 Y116.328 E15.42479
G1 X126.191 Y117.055 E15.44897
G1 X126.143 Y117.698 E15.47042
G1 X126.016 Y118.33 E15.49186
G1 X125.811 Y118.942 E15.51333
G1 X125.533 Y119.523 E15.53475
G1 X125.185 Y120.066 E15.5562
G1 X124.772 Y120.561 E15.57764
G1 X124.301 Y121.001 E15.59908
G1 X123.779 Y121.38 E15.62054
G1 X123.215 Y121.691 E15.64196
G1 X122.616 Y121.93 E15.66341
G1 X121.993 Y122.094 E15.68483
G1 X121.137 Y122.189 E15.71348
G1 X120.816 Y122.198 E15.72416
G1 X120.67 Y122.2 E15.72902
G1 X106.707 Y122.2 E16.19343
G1 X106.633 Y122.199 E16.19589
G1 X105.928 Y122.189 E16.21934
G1 X105.781 Y122.185 E16.22423
G1 X104.699 Y122.139 E16.26025
G1 X104.63 Y122.136 E16.26255
G1 X103.893 Y122.095 E16.2871
G1 X101.22 Y122.022 E16.37604
G1 X98.543 Y122.024 E16.46507
G1 X93.861 Y122.196 E16.6209
G1 X93.67 Y122.2 E16.62726
G1 X79.707 Y122.2 E17.09167
G1 X79.633 Y122.199 E17.09413
G1 X78.935 Y122.189 E17.11735
G1 X78.292 Y122.14 E17.1388
G1 X77.66 Y122.012 E17.16024
G1 X77.049 Y121.806 E17.18169
G1 X76.468 Y121.527 E17.20313
G1 X75.926 Y121.178 E17.22457
G1 X75.432 Y120.764 E17.246
G1 X74.992 Y120.292 E17.26747
G1 X74.614 Y119.77 E17.2889
G1 X74.304 Y119.205 E17.31034
G1 X74.066 Y118.606 E17.33177
G1 X73.904 Y117.982 E17.35322
G1 X73.811 Y117.131 E17.38169
G1 X73.802 Y116.799 E17.39274
G1 X73.8 Y116.658 E17.39743
G1 X73.8 Y102.684 E17.8622
G1 X73.801 Y102.611 E17.86463
G1 X73.817 Y101.469 E17.90262
G1 X73.817 Y98.677 E17.99548
G1 X73.801 Y97.78 E18.02532
G1 X73.8 Y97.687 E18.02841
G1 X73.8 Y83.674 E18.49449
G1 X73.801 Y83.596 E18.49708
G1 X73.811 Y82.931 E18.5192
G1 X73.86 Y82.288 E18.54065
G1 X73.989 Y81.656 E18.5621
G1 X74.195 Y81.045 E18.58355
G1 X74.475 Y80.465 E18.60497
G1 X74.825 Y79.923 E18.62643
G1 X75.239 Y79.429 E18.64787
G1 X75.711 Y78.99 E18.66931
G1 F2700 E10.66931
;MESH:shaft_base.stl
G0 F2400 X79.614 Y82.335
G0 X79.614 Y83.614
G0 X93.372 Y94.628
G0 X102.306 Y100.606
;TYPE:WALL-INNER
G1 F2700 E18.66931
G1 F1200 X102.53 Y101.222 E18.69111
G1 X102.87 Y101.75 E18.712
G1 X103.324 Y102.189 E18.733
G1 X103.863 Y102.511 E18.75388
G1 X104.46 Y102.703 E18.77474
G1 X105.085 Y102.754 E18.7956
G1 X105.708 Y102.665 E18.81653
G1 X106.293 Y102.434 E18.83745
G1 X106.81 Y102.08 E18.85829
G1 X107.234 Y101.615 E18.87922
G1 X107.544 Y101.064 E18.90025
G1 X107.717 Y100.461 E18.92111
G1 X107.752 Y99.835 E18.94196
G1 X107.642 Y99.215 E18.96291
G1 X107.396 Y98.638 E18.98377
G1 X107.026 Y98.132 E19.00462
G1 X106.551 Y97.719 E19.02555
G1 X105.99 Y97.427 E19.04659
G1 X105.384 Y97.27 E19.06741
G1 X104.755 Y97.254 E19.08834
G1 X104.139 Y97.383 E19.10927
G1 X103.57 Y97.644 E19.13009
G1 X103.074 Y98.029 E19.15098
G1 X102.677 Y98.516 E19.17187
G1 X102.4 Y99.082 E19.19283
G1 X102.254 Y99.723 E19.2147
G1 X102.306 Y100.606 E19.24412
G0 F2400 X102.743 Y99.203
G0 X103.328 Y98.289
G0 X104.253 Y97.728
G0 X109 Y97
G1 F1200 X109 Y103 E19.44368
G1 X120 Y103 E19.80954
G1 X120 Y116 E20.24192
G1 X107 Y116 E20.6743
G1 X107 Y105 E21.04016
G1 X93 Y105 E21.50581
G1 X93 Y116 E21.87167
G1 X80 Y116 E22.30405
G1 X80 Y103 E22.73643
G1 X91 Y103 E23.10229
G1 X91 Y102.75 E23.11061
G1 X94.889 Y102.75 E23.23996
G1 X95.583 Y102.696 E23.26311
G1 X96.194 Y102.484 E23.28462
G1 X96.719 Y102.155 E23.30523
G1 X97.155 Y101.719 E23.32573
G1 X97.484 Y101.195 E23.34631
G1 X97.686 Y100.614 E23.36677
G1 X97.757 Y100 E23.38733
G1 X97.686 Y99.386 E23.40789
G1 X97.484 Y98.805 E23.42835
G1 X97.155 Y98.281 E23.44893
G1 X96.719 Y97.845 E23.46943
G1 X96.195 Y97.516 E23.49001
G1 X95.599 Y97.309 E23.511
G1 X94.891 Y97.25 E23.53463
G1 X91 Y97.25 E23.66404
G1 X91 Y97 E23.67236
G1 X80 Y97 E24.03822
G1 X80 Y84 E24.4706
G1 X93 Y84 E24.90298
G1 X93 Y95 E25.26884
G1 X107 Y95 E25.73449
G1 X107 Y84 E26.10035
G1 X120 Y84 E26.53273
G1 X120 Y97 E26.96511
G1 X109 Y97 E27.33097
G0 F2400 X109.4 Y97.4
G1 F1200 X109.4 Y102.6 E27.50392
G1 X120.4 Y102.6 E27.86979
G1 X120.4 Y116.4 E28.32878
G1 X106.6 Y116.4 E28.78777
G1 X106.6 Y105.4 E29.15363
G1 X93.4 Y105.4 E29.59266
G1 X93.4 Y116.4 E29.95852
G1 X79.6 Y116.4 E30.41751
G1 X79.6 Y102.6 E30.8765
G1 X90.6 Y102.6 E31.24236
G1 X90.6 Y102.35 E31.25068
G1 X94.873 Y102.35 E31.3928
G1 X95.501 Y102.301 E31.41375
G1 X96.02 Y102.121 E31.43202
G1 X96.468 Y101.84 E31.44961
G1 X96.84 Y101.468 E31.46711
G1 X97.121 Y101.021 E31.48467
G1 X97.294 Y100.524 E31.50217
G1 X97.354 Y100 E31.51971
G1 X97.294 Y99.476 E31.53726
G1 X97.121 Y98.979 E31.55476
G1 X96.84 Y98.532 E31.57232
G1 X96.468 Y98.16 E31.58982
G1 X96.021 Y97.879 E31.60738
G1 X95.515 Y97.703 E31.6252
G1 X94.874 Y97.65 E31.64659
G1 X90.6 Y97.65 E31.78874
G1 X90.6 Y97.4 E31.79706
G1 X79.6 Y97.4 E32.16292
G1 X79.6 Y83.6 E32.62191
G1 X93.4 Y83.6 E33.0809
G1 X93.4 Y94.6 E33.44676
G1 X106.6 Y94.6 E33.8858
G1 X106.6 Y83.6 E34.25166
G1 X120.4 Y83.6 E34.71065
G1 X120.4 Y97.4 E35.16964
G1 X109.4 Y97.4 E35.5355
G0 F2400 X109.33 Y97.33
G0 X104.788 Y97.616
G0 X103.759 Y97.954
G0 X102.983 Y98.712
G0 X102.643 Y99.648
G0 X102.605 Y100.544
G0 X102.702 Y100.524
G1 F1200 X102.891 Y101.043 E35.55387
G1 X103.181 Y101.495 E35.57173
G1 X103.569 Y101.869 E35.58965
G1 X104.029 Y102.144 E35.60748
G1 X104.539 Y102.308 E35.6253
G1 X105.073 Y102.352 E35.64312
G1 X105.605 Y102.276 E35.66099
G1 X106.104 Y102.079 E35.67884
G1 X106.546 Y101.776 E35.69666
G1 X106.908 Y101.379 E35.71453
G1 X107.172 Y100.909 E35.73246
G1 X107.32 Y100.394 E35.75028
G1 X107.35 Y99.859 E35.7681
G1 X107.256 Y99.33 E35.78597
G1 X107.046 Y98.837 E35.8038
G1 X106.73 Y98.404 E35.82163
G1 X106.324 Y98.052 E35.8395
G1 X105.846 Y97.803 E35.85742
G1 X105.328 Y97.669 E35.87522
G1 X104.791 Y97.655 E35.89309
G1 X104.265 Y97.765 E35.91096
G1 X103.779 Y97.988 E35.92874
G1 X103.355 Y98.317 E35.94659
G1 X103.016 Y98.733 E35.96444
G1 X102.78 Y99.216 E35.98232
G1 X102.657 Y99.756 E36.00074
G1 X102.702 Y100.524 E36.02633
G0 F2400 X103.098 Y100.442
;TYPE:WALL-OUTER
G1 F1200 X103.252 Y100.865 E36.0413
G1 X103.492 Y101.24 E36.05611
G1 X103.813 Y101.549 E36.07093
G1 X104.195 Y101.777 E36.08573
G1 X104.618 Y101.913 E36.10051
G1 X105.061 Y101.95 E36.11529
G1 X105.502 Y101.887 E36.13011
G1 X105.915 Y101.724 E36.14488
G1 X106.282 Y101.472 E36.15968
G1 X106.582 Y101.143 E36.17449
G1 X106.8 Y100.754 E36.18932
G1 X106.923 Y100.327 E36.2041
G1 X106.948 Y99.883 E36.21889
G1 X106.87 Y99.445 E36.23369
G1 X106.696 Y99.036 E36.24847
G1 X106.434 Y98.677 E36.26326
G1 X106.097 Y98.385 E36.27809
G1 X105.702 Y98.179 E36.2929
G1 X105.272 Y98.068 E36.30767
G1 X104.827 Y98.056 E36.32248
G1 X104.391 Y98.147 E36.33729
G1 X103.988 Y98.332 E36.35204
G1 X103.636 Y98.605 E36.36686
G1 X103.355 Y98.95 E36.38166
G1 X103.16 Y99.35 E36.39646
G1 X103.06 Y99.789 E36.41143
G1 X103.098 Y100.442 E36.43319
G0 F2400 X103.166 Y100.63
G0 X102.696 Y100.8
G0 X102.618 Y99.753
G0 X102.983 Y98.712
G0 X103.759 Y97.954
G0 X104.685 Y97.638
G0 X109.3 Y97.8
G0 X109.8 Y97.8
G1 F1200 X109.8 Y102.2 E36.57953
G1 X120.8 Y102.2 E36.9454
G1 X120.8 Y116.8 E37.43099
G1 X106.2 Y116.8 E37.91659
G1 X106.2 Y105.8 E38.28245
G1 X93.8 Y105.8 E38.69488
G1 X93.8 Y116.8 E39.06074
G1 X79.2 Y116.8 E39.54634
G1 X79.2 Y102.2 E40.03194
G1 X90.2 Y102.2 E40.3978
G1 X90.2 Y101.95 E40.40611
G1 X94.857 Y101.95 E40.56101
G1 X95.419 Y101.906 E40.57975
G1 X95.846 Y101.758 E40.59479
G1 X96.217 Y101.525 E40.60936
G1 X96.525 Y101.217 E40.62384
G1 X96.758 Y100.846 E40.63842
G1 X96.902 Y100.434 E40.65293
G1 X96.951 Y100 E40.66746
G1 X96.902 Y99.566 E40.68198
G1 X96.758 Y99.154 E40.6965
G1 X96.525 Y98.783 E40.71107
